X: 27765
T: Morning Thrush, The
R: reel
M: 4/4
K: Dmajor
|:ag|f2 ef d2 AF|AdAF Agfe|d2 AF DF F2|ABdf egfe|
d2 AF dAAF|BAFA dADE|EDFA defa|afef d2:|
|:(3ABc|dcde faaf|g3e fgfe|d2 (3gfe faaf|gafg eAce|
dffe fa a2|bgaf ecdB|ADFA defa|afef d2:|
|:(3ABc|dAAF BAAF|D3F ADFA|dFFE F3B|ABdf e2 (3gfe|
dFAF DF F2|AdFA DF F2|ABdf defa|afef d2:|

